X:251
T:Plains of Boyle (hornpipe), The 
B:CRE2.315 (Magh Luirg)
F:file ID: cre.2/251plains
S:Jim Brophy
L:1/8
M:C
R:hornpipe
Q:150
K:D
B|:AFDE FEDF|(3AcA BG AFD2|(3gfe df (3gfd ce|d=cAB BAGB|
AFDE FEDF|(3AcA BG AFD2|(3gfe dc ABAG|1 FAD2 D2FG:|\
[2 FAD2 D2||
|:fg|afdf g2fe|defd BAFG|(3AcA FA BAFG|(3AcA FA BAfg|
afdf g2 (3gfe|defd BAFG|(3AcA AF GBAG|FAD2 D2:|

%%%

